cached_logos/drift-adopter.svg

<svg xmlns="http://www.w3.org/2000/svg" role="img" viewBox="-2.13 -2.00 104.00 43.63"><title>Drift (adopter) logo</title><g fill="none" fill-rule="evenodd"><g fill="#222"><g><g><g><path d="M39.5630143 19.8548699C39.5630143 30.7993478 30.706468 39.6718503 19.7816725 39.6718503 8.85687697 39.6718503.000330656703 30.7993478.000330656703 19.8548699.000330656703 8.91039202 8.85687697.037889505 19.7816725.037889505 30.706468.037889505 39.5630143 8.91039202 39.5630143 19.8548699zM32.3215046 14.5881771C32.0632482 14.4373479 31.7445488 14.4373479 31.4862924 14.5881771L20.8175554 20.8151127C20.5582 20.9670429 20.3999493 21.2455816 20.3999493 21.54724L20.3999493 24.8302531C20.3999493 25.1319116 20.5582 25.4104503 20.8175554 25.5612795 21.0736139 25.7110078 21.3879174 25.7110078 21.6450749 25.5645824 21.6472728 25.5634814 21.6494707 25.5623805 21.6527676 25.5612795L25.1628568 23.511323 25.1628568 31.1232454C25.1628568 31.4249038 25.3211076 31.7034425 25.579364 31.8542718 25.7090416 31.9291359 25.8530059 31.9676689 25.9969701 31.9676689 26.1409343 31.9676689 26.2848985 31.9291359 26.4145762 31.8542718L28.5124974 30.6300227C28.7707538 30.4791935 28.9301035 30.1995539 28.9301035 29.8989964L28.9301035 21.3116382 32.3215046 19.3310411C32.579761 19.1802118 32.7391107 18.9016732 32.7391107 18.6000147L32.7391107 15.3192035C32.7391107 15.017545 32.579761 14.7390063 32.3215046 14.5881771zM20.8175554 12.5985523L24.1803835 14.5615343C24.1979669 14.5725437 24.2089566 14.5912597 24.2089566 14.6110767L24.2089566 17.0485653C24.2089566 17.3061861 24.4836974 17.4680247 24.705688 17.3381134 26.0123556 16.5773615 29.5279396 14.528506 30.8236175 13.7754607 31.0423112 13.6488522 31.0390143 13.3339824 30.8203206 13.206273L21.6527676 7.85568828C21.3945112 7.70485904 21.0758118 7.70485904 20.8175554 7.85568828 20.5582 8.00651752 20.3999493 8.28505619 20.3999493 8.58671467L20.3999493 11.8675259C20.3999493 12.1691844 20.5582 12.447723 20.8175554 12.5985523zM18.9263492 7.8552479C18.6680928 7.70441866 18.3493934 7.70441866 18.091137 7.8552479L8.9191882 13.2091354C8.7026924 13.3357439 8.69829655 13.64621 8.91479235 13.7728184 10.2093713 14.5247628 13.7480335 16.5868297 15.0481073 17.3442787 15.265702 17.4708872 15.5349481 17.3123513 15.5349481 17.0591344L15.5349481 14.578709 18.7615047 12.6949949C19.1219647 12.4836138 19.3439553 12.0971827 19.3439553 11.6799251L19.3439553 8.58627429C19.3439553 8.28461581 19.1846056 8.00607714 18.9263492 7.8552479zM18.7460093 20.815443L8.07617335 14.5885074C7.8190159 14.4376781 7.50031651 14.4376781 7.2420601 14.5885074 6.98380369 14.7393366 6.824454 15.0167743 6.824454 15.3184328L6.824454 18.600345C6.824454 18.9020034 6.98380369 19.1805421 7.2420601 19.3313714L10.6334613 21.3108675 10.6334613 29.8993266C10.6334613 30.1998842 10.791712 30.4784228 11.0499684 30.6292521L13.1489886 31.854602C13.2786662 31.9294662 13.4226305 31.9679992 13.5665947 31.9679992 13.7105589 31.9679992 13.8545231 31.9294662 13.9842008 31.854602 14.2413582 31.7037728 14.4007079 31.4252341 14.4007079 31.1235756L14.4007079 23.5116533 17.9107971 25.5616098C17.914094 25.5627108 17.9162919 25.5638117 17.9184899 25.5649126 18.1756473 25.7113381 18.4899508 25.7102372 18.7460093 25.5616098 19.0042657 25.4107806 19.1636154 25.1322419 19.1636154 24.8305834L19.1636154 21.5464694C19.1636154 21.2459119 19.0042657 20.9662722 18.7460093 20.815443zM50.8424453 25.324907C53.8239331 25.324907 55.749317 22.973292 55.749317 19.96001 55.749317 16.9753526 53.8239331 14.6226366 50.8424453 14.6226366L48.0730574 14.6226366 48.0730574 25.324907 50.8424453 25.324907zM43.9585383 11.2405386C43.9585383 10.9763122 44.1695393 10.7385085 44.4332905 10.7385085L50.8688204 10.7385085C55.959219 10.7385085 60.1275873 14.886863 60.1275873 19.96001 60.1275873 25.0871032 55.959219 29.2354578 50.8688204 29.2354578L44.4332905 29.2354578C44.1695393 29.2354578 43.9585383 28.997654 43.9585383 28.7334276L43.9585383 11.2405386zM62.3687035 17.6086152C62.3687035 17.2651209 62.6324547 17.0273171 62.9478572 17.0273171L64.214962 17.0273171C64.5325625 17.0273171 64.6897142 17.1858529 64.7688396 17.3972341L65.3227172 18.7447887C65.8502196 17.767151 66.7733489 16.7630907 68.3558563 16.7630907 69.4647104 16.7630907 70.2823392 17.0537397 70.7296173 17.3972341 70.9417172 17.5557699 70.9417172 17.8199963 70.8098416 18.0578001L69.595487 20.4622604C69.4647104 20.7011651 69.2537094 20.8861236 68.9097338 20.7529094 68.6987328 20.6736415 68.2514547 20.5679509 67.9866045 20.5679509 67.0634753 20.5679509 66.3777221 21.2296179 66.3777221 22.2601009L66.3777221 28.6543799C66.3777221 29.0242969 66.1667211 29.235678 65.719443 29.235678L62.9478572 29.235678C62.6324547 29.235678 62.3687035 28.9714516 62.3687035 28.6543799L62.3687035 17.6086152zM73.2162418 17.6086152C73.2162418 17.2651209 73.4788941 17.0273171 73.7953956 17.0273171L76.6439088 17.0273171C76.9615092 17.0273171 77.2241615 17.2651209 77.2241615 17.6086152L77.2241615 28.6543799C77.2241615 28.9714516 76.9615092 29.235678 76.6439088 29.235678L73.7953956 29.235678C73.4788941 29.235678 73.2162418 28.9714516 73.2162418 28.6543799L73.2162418 17.6086152zM72.9250165 13.063921C72.9250165 11.7956343 73.9272712 10.7387286 75.1932771 10.7387286 76.4592829 10.7387286 77.4890117 11.7956343 77.4890117 13.063921 77.4890117 14.3057851 76.4592829 15.3362681 75.1932771 15.3362681 73.9272712 15.3362681 72.9250165 14.3057851 72.9250165 13.063921L72.9250165 13.063921zM81.0270145 20.6475491L79.9720097 20.6475491C79.6291331 20.6475491 79.391757 20.3833227 79.391757 20.066251L79.391757 17.6089455C79.391757 17.2654511 79.6291331 17.0276474 79.9720097 17.0276474L81.0270145 17.0276474 81.0270145 16.023587C81.0270145 12.7460787 82.7413975 10.4737316 86.2756639 10.4737316 87.8581713 10.4737316 89.4681527 11.1342976 89.9956551 11.6363278 90.180281 11.7695419 90.2319323 12.0866136 90.1011556 12.3233164L88.8087746 14.5956635C88.6758001 14.8081456 88.3856737 14.8874135 88.1482976 14.7541994 87.7526708 14.5174965 87.173517 14.2796928 86.5657903 14.2796928 85.1942839 14.2796928 85.0349342 15.0459493 85.0349342 16.023587L85.0349342 17.0276474 88.0966463 17.0276474C88.4120488 17.0276474 88.6758001 17.2654511 88.6758001 17.6089455L88.6758001 20.066251C88.6758001 20.3833227 88.4120488 20.6475491 88.0966463 20.6475491L85.0349342 20.6475491 85.0349342 28.6547102C85.0349342 28.9717819 84.7459068 29.2360083 84.4305043 29.2360083L81.6072672 29.2360083C81.3171409 29.2360083 81.0270145 28.9717819 81.0270145 28.6547102L81.0270145 20.6475491zM92.3898569 20.3566799L91.3876022 20.3566799C91.0974759 20.3566799 90.8590008 20.0924535 90.8590008 19.7753818L90.8590008 17.3180762C90.8590008 16.9745819 91.0974759 16.7367781 91.3876022 16.7367781L92.3898569 16.7367781 92.3898569 13.3546802C92.3898569 13.0376085 92.6536081 12.7722811 92.9701096 12.7722811L95.871373 12.7722811C96.1625983 12.7722811 96.3988755 13.0376085 96.3988755 13.3546802L96.3988755 16.7367781 98.8528608 16.7367781C99.1682633 16.7367781 99.4320146 16.9745819 99.4320146 17.3180762L99.4320146 19.7753818C99.4320146 20.0924535 99.1682633 20.3566799 98.8528608 20.3566799L96.3988755 20.3566799 96.3988755 24.610725C96.3988755 25.1931241 96.6890018 25.4562495 97.2176032 25.4562495 97.6385062 25.4562495 98.4297599 25.271291 98.7209852 25.1931241 99.0374867 25.1127552 99.3265141 25.2448684 99.4067384 25.563041L99.9342408 27.8618108C100.013366 28.2317277 99.8803916 28.3902636 99.538614 28.5487994 98.7209852 28.8922937 97.3494789 29.2357881 96.0559989 29.2357881 93.7360871 29.2357881 92.3898569 27.7561202 92.3898569 24.9817429L92.3898569 20.3566799z"/></g></g></g></g></g></svg>

<svg xmlns="http://www.w3.org/2000/svg" role="img" viewBox="-2.13 -2.00 104.00 43.63"><path fill="#222" fill-rule="evenodd" d="M39.563 19.855c0 10.944-8.857 19.817-19.781 19.817C8.857 39.672 0 30.799 0 19.855 0 8.91 8.857.038 19.782.038c10.924 0 19.781 8.872 19.781 19.817zm-7.241-5.267a.827.827 0 0 0-.836 0l-10.668 6.227a.847.847 0 0 0-.418.732v3.283c0 .302.158.58.418.731a.826.826 0 0 0 .835 0l3.51-2.05v7.612a.836.836 0 0 0 .834.844.836.836 0 0 0 .418-.113l2.097-1.224a.847.847 0 0 0 .418-.731v-8.587l3.392-1.981a.846.846 0 0 0 .417-.731v-3.28a.85.85 0 0 0-.417-.732zm-11.504-1.99l3.362 1.964a.06.06 0 0 1 .029.05v2.437c0 .257.275.419.497.29 1.306-.762 4.822-2.81 6.118-3.564a.329.329 0 0 0-.004-.569l-9.167-5.35a.827.827 0 0 0-.835 0 .844.844 0 0 0-.418.73v3.282c0 .301.158.58.418.73zm-1.892-4.743a.827.827 0 0 0-.835 0L8.92 13.21a.326.326 0 0 0-.004.564c1.294.752 4.833 2.814 6.133 3.571a.324.324 0 0 0 .487-.285v-2.48l3.227-1.884c.36-.211.582-.598.582-1.015V8.586c0-.301-.16-.58-.418-.73zm-.18 12.96L8.076 14.59a.825.825 0 0 0-.834 0 .844.844 0 0 0-.418.73v3.28c0 .302.16.58.418.731l3.391 1.98v8.588c0 .3.159.58.417.73l2.099 1.226a.836.836 0 0 0 1.252-.731v-7.612l3.51 2.05c.003 0 .005.002.007.003a.829.829 0 0 0 .828-.003.846.846 0 0 0 .418-.731v-3.285c0-.3-.16-.58-.418-.73zm32.096 4.51c2.982 0 4.907-2.352 4.907-5.365 0-2.985-1.925-5.337-4.907-5.337h-2.769v10.702h2.77zM43.96 11.24c0-.265.21-.502.474-.502h6.436c5.09 0 9.259 4.148 9.259 9.221 0 5.127-4.169 9.275-9.26 9.275h-6.435c-.263 0-.474-.237-.474-.502V11.241zm18.409 6.369c0-.344.263-.582.579-.582h1.267c.318 0 .475.159.554.37l.554 1.348c.527-.978 1.45-1.982 3.033-1.982 1.109 0 1.926.29 2.374.634.212.159.212.423.08.66l-1.215 2.405c-.13.24-.341.424-.685.29-.211-.078-.659-.184-.923-.184-.924 0-1.61.662-1.61 1.692v6.394c0 .37-.21.582-.658.582h-2.771a.586.586 0 0 1-.58-.582V17.61zm10.847 0c0-.344.263-.582.58-.582h2.848c.318 0 .58.238.58.582v11.045a.585.585 0 0 1-.58.582h-2.849a.585.585 0 0 1-.579-.582V17.61zm-.291-4.545c0-1.268 1.002-2.325 2.268-2.325 1.266 0 2.296 1.057 2.296 2.325 0 1.242-1.03 2.272-2.296 2.272a2.27 2.27 0 0 1-2.268-2.272zm8.102 7.584h-1.055a.57.57 0 0 1-.58-.582V17.61c0-.344.237-.581.58-.581h1.055v-1.004c0-3.278 1.714-5.55 5.249-5.55 1.582 0 3.192.66 3.72 1.162.184.134.236.45.105.687l-1.292 2.273a.494.494 0 0 1-.66.158c-.396-.237-.975-.474-1.583-.474-1.372 0-1.531.766-1.531 1.744v1.004h3.062c.315 0 .579.237.579.58v2.458a.586.586 0 0 1-.58.582h-3.061v8.007c0 .317-.29.581-.604.581h-2.824a.604.604 0 0 1-.58-.581v-8.007zm11.363-.291h-1.002c-.29 0-.529-.265-.529-.582v-2.457c0-.343.238-.581.529-.581h1.002v-3.382c0-.317.264-.583.58-.583h2.901c.292 0 .528.266.528.583v3.382h2.454a.57.57 0 0 1 .579.581v2.457a.586.586 0 0 1-.58.582H96.4v4.254c0 .582.29.845.819.845.42 0 1.212-.185 1.503-.263.316-.08.606.052.686.37l.527 2.299c.08.37-.054.528-.395.687-.818.343-2.19.687-3.483.687-2.32 0-3.666-1.48-3.666-4.254v-4.625z"/></svg>
